apps/homepage/src/assets/home/keycap/orange-keycap-long-col.svg

<svg width="290" height="586" viewBox="0 0 290 586" fill="none" xmlns="http://www.w3.org/2000/svg">
<rect x="290" width="586" height="290" rx="50" transform="rotate(90 290 0)" fill="url(#paint0_radial_6834_66707)"/>
<g filter="url(#filter0_f_6834_66707)">
<path d="M119.215 89.9707L97.8217 58.4669C97.8217 58.4669 114.737 7.99999 110.072 8C91.856 8.00004 106.233 11.2419 86.6412 11.2418C79.7285 11.2417 76.4685 11.4918 69.8488 12.1088C61.5559 12.8816 61.2366 8.75122 53.34 9.85265C42.4427 11.3726 36.3626 12.9431 28.1511 15.6332C20.7886 18.0451 20.6434 23.6093 15.5184 26.5247C10.9879 29.1019 13.9455 35.2225 12.1242 38.1024C10.373 40.8716 9.21483 39.9118 9.21483 42.7336L9.21481 67.3007L35.6145 105L35.6145 101.243L42.145 94.8841L53.34 89.9707L66.9712 98.0634L87.4955 92.5719L119.215 89.9707Z" fill="url(#paint1_linear_6834_66707)"/>
</g>
<rect x="249" y="43" width="500" height="207.933" rx="50" transform="rotate(90 249 43)" fill="url(#paint2_linear_6834_66707)"/>
<mask id="mask0_6834_66707" style="mask-type:alpha" maskUnits="userSpaceOnUse" x="41" y="43" width="208" height="500">
<rect x="249" y="43" width="500" height="208" rx="50" transform="rotate(90 249 43)" fill="url(#paint3_linear_6834_66707)"/>
</mask>
<g mask="url(#mask0_6834_66707)">
<g filter="url(#filter1_f_6834_66707)">
<rect x="246.5" y="45.5" width="495" height="203" rx="47.5" transform="rotate(90 246.5 45.5)" stroke="url(#paint4_linear_6834_66707)" stroke-width="5"/>
</g>
</g>
<defs>
<filter id="filter0_f_6834_66707" x="1.21484" y="0" width="126" height="113" filterUnits="userSpaceOnUse" color-interpolation-filters="sRGB">
<feFlood flood-opacity="0" result="BackgroundImageFix"/>
<feBlend mode="normal" in="SourceGraphic" in2="BackgroundImageFix" result="shape"/>
<feGaussianBlur stdDeviation="4" result="effect1_foregroundBlur_6834_66707"/>
</filter>
<filter id="filter1_f_6834_66707" x="31" y="33" width="228" height="520" filterUnits="userSpaceOnUse" color-interpolation-filters="sRGB">
<feFlood flood-opacity="0" result="BackgroundImageFix"/>
<feBlend mode="normal" in="SourceGraphic" in2="BackgroundImageFix" result="shape"/>
<feGaussianBlur stdDeviation="5" result="effect1_foregroundBlur_6834_66707"/>
</filter>
<radialGradient id="paint0_radial_6834_66707" cx="0" cy="0" r="1" gradientUnits="userSpaceOnUse" gradientTransform="translate(583 145) rotate(-90) scale(145 293)">
<stop stop-color="#FFA726"/>
<stop offset="1" stop-color="#F87D02"/>
</radialGradient>
<linearGradient id="paint1_linear_6834_66707" x1="136.139" y1="44.7486" x2="109.043" y2="99.0609" gradientUnits="userSpaceOnUse">
<stop stop-color="#F87D02"/>
<stop offset="0.466346" stop-color="#FFBE7C"/>
<stop offset="1" stop-color="#F87D02"/>
</linearGradient>
<linearGradient id="paint2_linear_6834_66707" x1="806.471" y1="146.966" x2="315.516" y2="62.6403" gradientUnits="userSpaceOnUse">
<stop stop-color="#FFA726"/>
<stop offset="1" stop-color="#F86902"/>
</linearGradient>
<linearGradient id="paint3_linear_6834_66707" x1="806.471" y1="147" x2="315.507" y2="62.6997" gradientUnits="userSpaceOnUse">
<stop stop-color="#FFA726"/>
<stop offset="1" stop-color="#F86902"/>
</linearGradient>
<linearGradient id="paint4_linear_6834_66707" x1="368.76" y1="80.988" x2="462.806" y2="332.727" gradientUnits="userSpaceOnUse">
<stop stop-color="white"/>
<stop offset="1" stop-color="#F89202"/>
</linearGradient>
</defs>
</svg>

<svg xmlns="http://www.w3.org/2000/svg" xmlns:xlink="http://www.w3.org/1999/xlink" width="290" height="586" fill="none" viewBox="0 0 290 586"><rect width="586" height="290" x="290" fill="url(#a)" rx="50" transform="rotate(90 290 0)"/><g filter="url(#b)"><path fill="url(#c)" d="M119.215 89.97 97.822 58.468S114.737 8 110.072 8c-18.216 0-3.839 3.242-23.43 3.242-6.913 0-10.173.25-16.793.867-8.293.773-8.612-3.358-16.509-2.256-10.897 1.52-16.977 3.09-25.189 5.78-7.362 2.412-7.508 7.976-12.633 10.892-4.53 2.577-1.573 8.697-3.394 11.577-1.751 2.77-2.91 1.81-2.91 4.632V67.3L35.615 105v-3.757l6.531-6.359 11.195-4.913 13.631 8.092 20.525-5.491z"/></g><rect width="500" height="207.933" x="249" y="43" fill="url(#d)" rx="50" transform="rotate(90 249 43)"/><mask id="f" width="208" height="500" x="41" y="43" maskUnits="userSpaceOnUse" style="mask-type:alpha"><rect width="500" height="208" x="249" y="43" fill="url(#e)" rx="50" transform="rotate(90 249 43)"/></mask><g filter="url(#g)" mask="url(#f)"><rect width="495" height="203" x="246.5" y="45.5" stroke="url(#h)" stroke-width="5" rx="47.5" transform="rotate(90 246.5 45.5)"/></g><defs><linearGradient id="c" x1="136.139" x2="109.043" y1="44.749" y2="99.061" gradientUnits="userSpaceOnUse"><stop stop-color="#f87d02"/><stop offset=".466" stop-color="#ffbe7c"/><stop offset="1" stop-color="#f87d02"/></linearGradient><linearGradient id="d" x1="806.471" x2="315.516" y1="146.966" y2="62.64" gradientUnits="userSpaceOnUse"><stop stop-color="#ffa726"/><stop offset="1" stop-color="#f86902"/></linearGradient><linearGradient id="e" x1="806.471" x2="315.507" y1="147" y2="62.7" gradientUnits="userSpaceOnUse"><stop stop-color="#ffa726"/><stop offset="1" stop-color="#f86902"/></linearGradient><linearGradient id="h" x1="368.76" x2="462.806" y1="80.988" y2="332.727" gradientUnits="userSpaceOnUse"><stop stop-color="#fff"/><stop offset="1" stop-color="#f89202"/></linearGradient><filter id="b" width="126" height="113" x="1.215" y="0" color-interpolation-filters="sRGB" filterUnits="userSpaceOnUse"><feFlood flood-opacity="0" result="BackgroundImageFix"/><feBlend in="SourceGraphic" in2="BackgroundImageFix" result="shape"/><feGaussianBlur result="effect1_foregroundBlur_6834_66707" stdDeviation="4"/></filter><filter id="g" width="228" height="520" x="31" y="33" color-interpolation-filters="sRGB" filterUnits="userSpaceOnUse"><feFlood flood-opacity="0" result="BackgroundImageFix"/><feBlend in="SourceGraphic" in2="BackgroundImageFix" result="shape"/><feGaussianBlur result="effect1_foregroundBlur_6834_66707" stdDeviation="5"/></filter><radialGradient id="a" cx="0" cy="0" r="1" gradientTransform="matrix(0 -145 293 0 583 145)" gradientUnits="userSpaceOnUse"><stop stop-color="#ffa726"/><stop offset="1" stop-color="#f87d02"/></radialGradient></defs></svg>
